X:564
T: HAB ICH MEIN TAG KEIN GUT GETHAN
N: E0532
O: Europa, Mitteleuropa, Deutschland
R: Liebes - Lied
M: 4/4
L: 1/8
K: G
=F2 | _B2d2c2A2 | _B2G2=F2
F2 | _B2d2c2A2 | _B4z2
=F2 | _B2d2c2A2 | _B2AG=F2
G2 | A2D2E2F2 | G4z2

